X:159
T:Le roy de France
C:Air sépharade
Z:Transcrit et/ou corrigé par B@D - 2006-11-17
Z:Pour toute observation mailto:-@-
M:5/2
L:1/8
K:Cm
V:1
c |: c4 g3f feef g6 g a | c'3b bggf fedf f2 e4 e e |
e3d g3f e2 dc B6 cd | e3d g3f e2 dc c6 zc :|
P:Introduction
c || c4 g3G G4 | c3c cdef g2 fe dc2_B c2 ||
V:2
x |: G2G2 G12 G4 | G2G2 G6 G2 G4 G4 |
G2G2 G12 G4 | G2G2 G6 G2 G4 G4 :|



%%header "$P0	 $IR 	$P1"
%%footer $D - Éditions Galouvielle - 2009 - À usage librement privé dans le cadre familial

